packages/foundations/assets/icons/functional/images/human/toys_24.svg

<svg width="24" height="24" viewBox="0 0 24 24" fill="none" xmlns="http://www.w3.org/2000/svg">
<g clip-path="url(#clip0_185_1218)">
<path fill-rule="evenodd" clip-rule="evenodd" d="M18 2C20.4853 2 22.5 4.01472 22.5 6.5C22.5 7.5894 22.1182 8.633 21.357 9.494C21.4523 9.99906 21.5 10.5011 21.5 11C21.5 14.3664 19.4013 17.3375 16.2993 18.4963C15.7819 18.6896 15.2058 18.4268 15.0126 17.9095C14.8193 17.3921 15.082 16.816 15.5994 16.6228C17.9258 15.7537 19.5 13.5251 19.5 11C19.5 10.5716 19.5 10 19.1284 8.8201C20.1806 8 20.5 7.24613 20.5 6.5C20.5 5.11929 19.3807 4 18 4C17.316 4 16.4449 4.26029 15.6818 5.37229C14.736 5.12815 14.5 5 13.5 5C12.8333 5 12.1067 5.12386 11.3201 5.37157C10.6993 4.45719 9.92595 4 9 4C7.61929 4 6.5 5.11929 6.5 6.5C6.5 7.11335 6.64725 7.88237 7.87229 8.81824C7.71034 9.24503 7.59501 9.83092 7.56476 10.1144C9.24642 10.479 10.6122 11.689 11.1952 13.277C11.3158 13.3076 11.4275 13.3718 11.5303 13.4697C11.92 13.8593 12.3887 13.813 12.613 13.5233C12.6837 13.4176 12.7306 13.2799 12.7452 13.1136L12.745 12.75H12.5C12.0858 12.75 11.75 12.4142 11.75 12C11.75 11.6203 12.0469 11.25 12.5 11.25C13.1666 11.2478 13.8333 11.2478 14.5 11.25C14.9142 11.25 15.25 11.5858 15.25 12C15.25 12.2263 15.0675 12.75 14.5 12.75H14.254L14.2548 13.1136C14.2704 13.2912 14.3227 13.4361 14.4009 13.5446C14.6113 13.7945 15.1768 13.7626 15.4697 13.4697C15.7626 13.1768 16.2374 13.1768 16.5303 13.4697C16.8232 13.7626 16.8232 14.2374 16.5303 14.5303C15.6289 15.4318 14.3405 15.4997 13.5 14.775C12.9403 15.2872 12.1626 15.3851 11.4956 15.1701C11.457 15.9954 11.26 16.7284 10.9043 17.3689L11.8091 18.1226C12.0244 18.0433 12.2571 18 12.5 18C13.6046 18 14.5 18.8954 14.5 20C14.5 21.1046 13.6046 22 12.5 22C11.3954 22 10.5 21.1046 10.5 20C10.5 19.8841 10.5099 19.7706 10.5288 19.6601L9.62337 18.9047C8.76762 19.5901 7.68168 20 6.5 20C3.73858 20 1.5 17.7614 1.5 15C1.5 12.5628 3.24382 10.5328 5.55183 10.0898C5.57011 9.92394 5.6035 9.70492 5.643 9.494C5.00749 8.81824 4.5 7.70582 4.5 6.5C4.5 4.01472 6.51472 2 9 2C10.0894 2 11.0982 2.34422 11.994 3.142C12.542 3.04733 13.044 3 13.5 3C13.9747 3 14.4962 3.03904 15.005 3.143C15.8749 2.39166 16.8727 2 18 2ZM16.5 8C17.0523 8 17.5 8.44772 17.5 9C17.5 9.55228 17.0523 10 16.5 10C15.9477 10 15.5 9.55228 15.5 9C15.5 8.44772 15.9477 8 16.5 8ZM10.5 8C11.0523 8 11.5 8.44772 11.5 9C11.5 9.55228 11.0523 10 10.5 10C9.94771 10 9.5 9.55228 9.5 9C9.5 8.44772 9.94771 8 10.5 8ZM6.5 12C4.84315 12 3.5 13.3431 3.5 15C3.5 16.6569 4.84315 18 6.5 18C8.15685 18 9.5 16.6569 9.5 15C9.5 13.3431 8.15685 12 6.5 12Z" fill="#1A1C1F"/>
</g>
<defs>
<clipPath id="clip0_185_1218">
<rect width="24" height="24" fill="white"/>
</clipPath>
</defs>
</svg>

<svg xmlns="http://www.w3.org/2000/svg" width="24" height="24" fill="none"><g clip-path="url(#a)"><path fill="#1A1C1F" fill-rule="evenodd" d="M18 2a4.5 4.5 0 0 1 3.357 7.494q.143.758.143 1.506a8 8 0 0 1-5.2 7.496 1 1 0 1 1-.7-1.873A6 6 0 0 0 19.5 11c0-.428 0-1-.372-2.18C20.181 8 20.5 7.246 20.5 6.5A2.5 2.5 0 0 0 18 4c-.684 0-1.555.26-2.318 1.372C14.736 5.128 14.5 5 13.5 5q-1 0-2.18.372Q10.39 4 9 4a2.5 2.5 0 0 0-2.5 2.5c0 .613.147 1.382 1.372 2.318a6.2 6.2 0 0 0-.307 1.296 5.01 5.01 0 0 1 3.63 3.163q.18.045.335.193c.39.39.859.343 1.083.053a.87.87 0 0 0 .132-.41v-.363H12.5a.75.75 0 0 1 0-1.5q1-.003 2 0a.75.75 0 0 1 .75.75c0 .226-.182.75-.75.75h-.246v.364a.86.86 0 0 0 .147.43c.21.25.776.219 1.069-.074a.75.75 0 1 1 1.06 1.06c-.901.902-2.19.97-3.03.245-.56.512-1.337.61-2.004.395q-.058 1.238-.592 2.199l.905.754a2 2 0 1 1-1.28 1.538l-.906-.756a5 5 0 1 1-4.072-8.815c.02-.166.053-.385.092-.596C5.007 8.818 4.5 7.706 4.5 6.5A4.5 4.5 0 0 1 9 2c1.09 0 2.098.344 2.994 1.142A9 9 0 0 1 13.5 3c.475 0 .996.039 1.505.143C15.875 2.392 16.873 2 18 2m-1.5 6a1 1 0 1 1 0 2 1 1 0 0 1 0-2m-6 0a1 1 0 1 1 0 2 1 1 0 0 1 0-2m-4 4a3 3 0 1 0 0 6 3 3 0 0 0 0-6" clip-rule="evenodd"/></g><defs><clipPath id="a"><path fill="#fff" d="M0 0h24v24H0z"/></clipPath></defs></svg>
